packages/core/src/svgs/networks/branded/fio.svg

<svg width="24" height="24" viewBox="0 0 24 24" fill="none" xmlns="http://www.w3.org/2000/svg">
<path d="M12.471 14.8579V21.569C12.471 21.9254 12.2472 22.0957 11.9706 21.9451L8.27518 19.9643C8.1238 19.862 7.99913 19.7249 7.91159 19.5646C7.82404 19.4043 7.77616 19.2252 7.77197 19.0426V12.4839C7.82746 12.5286 7.88625 12.5672 7.94834 12.6016L12.471 14.8579Z" fill="#425CC7"/>
<path d="M8.19231 11.7508L15.8133 7.8432C15.9386 7.76412 16.0423 7.65527 16.1154 7.52637C16.1884 7.39747 16.2284 7.2525 16.2318 7.10438V2.35451C16.2318 2.0601 16.0433 1.92467 15.8133 2.04224L8.79051 5.64368C8.06627 6.03261 7.73049 6.21554 7.7714 7.03666V11.4385C7.7714 11.7188 7.9628 11.8688 8.19231 11.7508Z" fill="#005CB9"/>
<path d="M8.1924 6.31527L15.8134 10.2234C16.0683 10.3851 16.2253 10.6635 16.2319 10.9649V15.712C16.2319 16.0064 16.0434 16.1447 15.8134 16.0271L8.1924 12.119C8.06646 12.0398 7.9621 11.9306 7.88866 11.8012C7.81521 11.6717 7.77495 11.5262 7.77148 11.3774V6.62989C7.77148 6.33926 7.96289 6.19723 8.1924 6.31527Z" fill="#3CB4E5"/>
<path d="M8.1924 11.7508L13.4925 9.03303L8.1924 6.31526C8.14874 6.28636 8.09755 6.27142 8.04519 6.27142C7.99284 6.27142 7.94165 6.28683 7.898 6.31573C7.82134 6.45682 7.77807 6.61342 7.77148 6.77472V11.3774C7.77432 11.479 7.795 11.5778 7.83357 11.6723C7.90316 11.7918 8.05648 11.8321 8.17594 11.7621C8.18064 11.7583 8.18675 11.7546 8.1924 11.7508Z" fill="#00A0DF"/>
</svg>

<svg xmlns="http://www.w3.org/2000/svg" width="24" height="24" fill="none" viewBox="0 0 24 24">
    <path fill="#425CC7" d="M12.471 14.858v6.711c0 .356-.224.527-.5.376l-3.696-1.98a1.14 1.14 0 0 1-.503-.922v-6.56q.083.068.176.119z"/>
    <path fill="#005CB9" d="m8.192 11.75 7.621-3.907a.9.9 0 0 0 .419-.739v-4.75c0-.294-.189-.43-.419-.312L8.791 5.644c-.725.389-1.06.572-1.02 1.393v4.401c0 .28.192.43.421.313"/>
    <path fill="#3CB4E5" d="m8.192 6.315 7.621 3.908c.255.162.412.44.419.742v4.747c0 .294-.189.433-.419.315l-7.62-3.908a.9.9 0 0 1-.422-.742V6.63c0-.29.192-.433.421-.315"/>
    <path fill="#00A0DF" d="m8.192 11.75 5.3-2.717-5.3-2.718a.27.27 0 0 0-.294 0 1.05 1.05 0 0 0-.127.46v4.602q.005.153.063.295c.07.12.222.16.342.09z"/>
</svg>
